X: 982
T: Trot Along My Honey
C:transcribed from Howdy Forrester
B: jims roots
M:C|
L:1/8
Q: 1/4=100
K:C
V:1 
cB|:"C"c2AG EGAB|c2AG EGAB|cBcG "G7"BcdB|"C"[E6c6] cd |
c2AG EGcd | c2AG EFEF | EFGA "G7"GEDE|[1 "C"C6 AB:| [2 "C"C6 cd||
"C"e2g2 edcd | ecdc AcGc | "F"ABcA dcAc |"C"G6 cd |
e2g2 edcd | ecdc AcGc | "D"Addd ddde |"G"d8|
"C"eeee edcd | ecdc AcGc | "F"ABcA dcAc | "C"G4z4|
c2AG EGAB | c2AG ECEG | "G"GFGA GEDE | "C"C4z4|
!slide!"Am"([A2A2][A2A2]) Bc (3BcB | ABA^F EDEF |  "E"Ee2 fe2d2 | "Am"c2 "E"(3BcB "Am"A4||G4z2 "back to B"cd|
V:K:Am 
(3E^F^G | "Am"A2A2 Bc (3BcB | ABA^F EDEF |  A2A2 Bc (3BcB | ABcd "E"e4|
% abcbook-tune_id 6298c29768aae5de4bf8bc90


% abcbook-boost 0
% abcbook-tablature 
% abcbook-transpose 
% abcbook-lastupdated 1654178456289
% abcbook-soundfonts 
% abcbook-repeats 1


